!!!OTL: Trinklied zum Verlobungsfest, S. 72
!!!id: S0082
**kern
*clefG2
*k[f#]
*G:
{8d
=1
4g
8b
8a
8a
8g
=2
8f#
8f#
8a
4g}
=3
{16g
16g
=4
4f#
8g
8a
8g
8f#
=5
4e
8d
8d}
8r
=6
{8dd
=7
8dd
8dd
8dd
8ee
8dd
8cc
=8
4.b
4a}
=9
{8b
=10
8dd
8b
8b
8b
8a
8b
=11
8cc
8a
8a
8a}
8r
=12
{8b
=13
8dd
8cc
8b
8a
8b
8cc
=14
4.a
8g}
8r
==
*-
!!!minrhy: 16
!!!meters: 6/8 ]  ZZ[5
!!!cut: Trinklied zum Verlobungsfest, S. 72
!!!reg: Luxemburg
!!!trd: Die Bauernhochzeit in fr&uuml;heren Zeiten
!!!rhy1: X_  X__X_X_X_X_  X_X_X_X__
!!!rhy2: XX  X__X_X_X_X_  X__X_X_0_
!!!key: S0082  16  G 6/8 ]  ZZ[5
!!!mod: HEPTATONIK IONISCH]  AMBITUS[9
!!!kad: 1-5221
!!!akz: 12-71_-72-6-5_5632_5342_5221_
!!!fot: 'a__b__bs"c__d__
!!!for: 'a__b__c__d__cv_
!!!fok: '^a_\__\__Md_Md_
!! PHRAS[AUFTAKTIG]
!!!fkt: Trinklied, Verlobung
!! RUDEN, J.M.:
!! PR[6] 2K[0] 2G[8] 3K[8] 3G[12] 4A[8] 4Ü[0] 5A[0] 6K[0] 6G[2]
!! 7K[0] 7G[0] 8A[0] MEHR[0] SI[39] ABS[49] SR[8] SP[31]
!! ST[16] 2k[4] 2g[31] 3k[6] 3g[6] 4d[8] 4ü[0] 5d[0] 6k[0] 6g[0]
!! 7k[0] 7g[0] 8d[0] mehr[0] si[55] dm[-16] sr[35] sp[20]
!! 1F[34] 2F[30] 3F[23] 4F[0] LF[0] 2P[8] 3P[6] 4P[0] TRI[0] DF[5] AB[53]
!! TF[0] U3K[0] U3[0] U4[0] U4Ü[0] U5[6] U6K[0] U6[0] U7K[0] U7[0]
!! N1[18] N2K[0] N2[8] N3K[0] N3[22] N4[8] N4Ü[0] N5[24] N6K[0] N6[10]
!!!n7k: 0] N7[2] O1[2] O2K[0] O2[0] O3K[0] O3[0] HÖ[0
!!!RNB: symbol: &uuml;  = u umlaut (UTF-8: Ã¼)
